packages/admin/admin-icons/icons/location.svg

<svg xmlns="http://www.w3.org/2000/svg" width="16" height="16" viewBox="0 0 16 16"><path fill="#232323" fill-rule="evenodd" d="M8,0 C11.0375661,0 13.5,2.46243388 13.5,5.5 C13.5,5.77614237 13.2761424,6 13,6 C12.7238576,6 12.5,5.77614237 12.5,5.5 C12.5,3.01471863 10.4852814,1 8,1 C5.51471863,1 3.5,3.01471863 3.5,5.5 C3.5,6.35205138 3.91056949,7.59853874 4.73173252,9.22607583 L5.02066073,9.78268278 C5.07134997,9.87779664 5.12330648,9.974082 5.17653027,10.0715365 L5.51108036,10.6702758 C5.56937327,10.7723979 5.62893347,10.8756847 5.68976095,10.9801337 L6.06993336,11.6207573 L6.48052089,12.2891661 L6.92152375,12.98525 L7.39294213,13.7088987 L7.991,14.603 L8.87628673,13.2441117 L9.42865321,12.3795011 L9.90944288,11.6117438 L10.3185576,10.9410278 L10.551433,10.5478885 L10.7523801,10.198018 L10.9173325,9.89898364 C11.0481459,9.6557914 11.3513374,9.56469034 11.5945296,9.69550374 C11.8377219,9.82631713 11.9288229,10.1295086 11.7980095,10.3727009 L11.6330159,10.6721425 L11.332274,11.1929525 L10.967556,11.7998818 L10.5387787,12.4930901 L10.2172973,13.0032409 L9.28870962,14.447005 L8.417183,15.7756054 C8.22196774,16.0711021 7.78988456,16.0755682 7.58860299,15.7841698 L7.05336109,15.0010634 L6.54785332,14.2444787 L6.07207984,13.5143149 C5.99526213,13.3948171 5.91968336,13.2764159 5.84534353,13.1591093 L5.41417184,12.4683873 C5.06725156,11.9037032 4.75130498,11.3662778 4.46633258,10.855848 L4.13923333,10.2562733 C3.04642278,8.20299681 2.5,6.62406786 2.5,5.5 C2.5,2.46243388 4.96243388,0 8,0 Z M8,2.5 C9.38071187,2.5 10.5,3.61928813 10.5,5 C10.5,6.38071187 9.38071187,7.5 8,7.5 C6.61928813,7.5 5.5,6.38071187 5.5,5 C5.5,4.72385763 5.72385763,4.5 6,4.5 C6.27614237,4.5 6.5,4.72385763 6.5,5 C6.5,5.82842712 7.17157288,6.5 8,6.5 C8.82842712,6.5 9.5,5.82842712 9.5,5 C9.5,4.17157288 8.82842712,3.5 8,3.5 C7.72385763,3.5 7.5,3.27614237 7.5,3 C7.5,2.72385763 7.72385763,2.5 8,2.5 Z"/></svg>

<svg width="16" height="16" fill="none" viewBox="0 0 16 16">
  <path fill="#242424" fill-rule="evenodd" d="M8 .001a5.5 5.5 0 0 1 5.5 5.5.5.5 0 0 1-1 0 4.5 4.5 0 1 0-9 0c0 .852.41 2.099 1.232 3.726l.289.557c.05.095.102.191.156.288l.334.6.179.31.38.64.41.668.442.696.47.724.599.894.885-1.359.553-.864.48-.768.41-.671.232-.393.201-.35.165-.299a.5.5 0 1 1 .881.474l-.165.3-.3.52-.365.607-.43.693-.32.51-.93 1.444-.87 1.329a.5.5 0 0 1-.83.008l-.535-.783-.505-.757-.476-.73-.227-.355-.43-.69a44.916 44.916 0 0 1-.949-1.613l-.327-.6C3.046 8.204 2.5 6.625 2.5 5.501A5.5 5.5 0 0 1 8 .001Zm0 2.5a2.5 2.5 0 1 1-2.5 2.5.5.5 0 1 1 1 0 1.5 1.5 0 1 0 1.5-1.5.5.5 0 0 1 0-1Z" clip-rule="evenodd"/>
</svg>
